icons/group-2-fill.svg

<svg viewBox="0 0 24 24" fill="currentColor" xmlns="http://www.w3.org/2000/svg"><path d="M10 19.748V16.4C10 15.1174 10.9948 14.1076 12.4667 13.5321C11.5431 13.188 10.5435 13 9.5 13C7.61013 13 5.86432 13.6168 4.45286 14.66C5.33199 17.1544 7.41273 19.082 10 19.748ZM18.8794 16.0859C18.4862 15.5526 17.1708 15 15.5 15C13.4939 15 12 15.7967 12 16.4V20C14.9255 20 17.4843 18.4296 18.8794 16.0859ZM9.55 11.5C10.7926 11.5 11.8 10.4926 11.8 9.25C11.8 8.00736 10.7926 7 9.55 7C8.30736 7 7.3 8.00736 7.3 9.25C7.3 10.4926 8.30736 11.5 9.55 11.5ZM15.5 12.5C16.6046 12.5 17.5 11.6046 17.5 10.5C17.5 9.39543 16.6046 8.5 15.5 8.5C14.3954 8.5 13.5 9.39543 13.5 10.5C13.5 11.6046 14.3954 12.5 15.5 12.5ZM12 22C6.47715 22 2 17.5228 2 12C2 6.47715 6.47715 2 12 2C17.5228 2 22 6.47715 22 12C22 17.5228 17.5228 22 12 22Z"/></svg>

<svg xmlns="http://www.w3.org/2000/svg" viewBox="0 0 24 24">
    <g>
        <path fill="none" d="M0 0h24v24H0z"/>
        <path d="M10 19.748V16.4c0-1.283.995-2.292 2.467-2.868A8.482 8.482 0 0 0 9.5 13c-1.89 0-3.636.617-5.047 1.66A8.017 8.017 0 0 0 10 19.748zm8.88-3.662C18.485 15.553 17.17 15 15.5 15c-2.006 0-3.5.797-3.5 1.4V20a7.996 7.996 0 0 0 6.88-3.914zM9.55 11.5a2.25 2.25 0 1 0 0-4.5 2.25 2.25 0 0 0 0 4.5zm5.95 1a2 2 0 1 0 0-4 2 2 0 0 0 0 4zM12 22C6.477 22 2 17.523 2 12S6.477 2 12 2s10 4.477 10 10-4.477 10-10 10z"/>
    </g>
</svg>
